X:527
T:Marquis of Queensbury
R:Reel
B:The Athole Collection
M:C|
L:1/8
K:C
f|ec c/c/c ~c2 ec|fedc Bagf|ec c/c/c ~c2 ac|BGAB c2:|
G|EFGE F2Ac|BcdB c2 eg|afaf gedc|BGAB c2cG|CEGE FGAc|
BcdB cdeg|afaf gedc|BGAB cagf||

